X:154
T:Lady On The Island, The
Z:Josh Kane
S:https://thesession.org/tunes/938#setting938
R:reel
M:4/4
L:1/8
K:Dmaj
| BAFB AFEF | D2FA BAdB | BAFB ~A2AB | defd efdB |
BAFB AFEF | DAFA GBdB | BAFB AFAB | defd eABc ||
|:d2fd efge | afdf edBA |1 d2fd efge |
afdf e2 (3ABc :|2 defg ~a2ab | afdf edd2 ||

